X: 32
T:I Buried My Wife and Danced on Top of Her
M:6/8
L:1/8
R:jig
D:Loosely Taken from Dervish "Playing with Fire"
Z:Transcribed by Dan Beimborn
K:D
||:+A,D+DD  EFG|A/2A/2Bd =cAF|+G,F+GG +G,GB+AG|+A,F+AA +A,E+AA|
DD/2D/2D EFG|{=c}A2 d =cAF|GGG BAG|AFD {E}D2 D:|
|:+D2d2+ e fed|.f/2.f/2.ff gfe|+B,2F2d2+ e fed|+A,Ed+AA +A,Ec+AA|
+D2d2+ e fed|.f/2.f/2.ff gfe|dd/2^c/2A BAG|AFD DD/2E/2D:|

